assets/misc-grey/MiscGrey79.svg

<svg width="41" height="41" viewBox="0 0 41 41" fill="none" xmlns="http://www.w3.org/2000/svg">
<path fill-rule="evenodd" clip-rule="evenodd" d="M37.79 31.1899C37.79 31.4599 37.561 31.6899 37.29 31.6899H4.04004C3.76904 31.6899 3.54004 31.4599 3.54004 31.1899V20.1899C3.54004 19.9199 3.76904 19.6899 4.04004 19.6899H37.29C37.561 19.6899 37.79 19.9199 37.79 20.1899V31.1899ZM28.54 36.6899C28.54 36.9599 28.311 37.1899 28.04 37.1899H13.04C12.769 37.1899 12.54 36.9599 12.54 36.6899V34.6899H28.54V36.6899ZM12.54 3.68994C12.54 3.41994 12.769 3.18994 13.04 3.18994H28.04C28.311 3.18994 28.54 3.41994 28.54 3.68994V16.6899H12.54V3.68994ZM37.29 16.6899H31.54V3.68994C31.54 1.75994 29.97 0.189941 28.04 0.189941H13.04C11.11 0.189941 9.54004 1.75994 9.54004 3.68994V16.6899H4.04004C2.11004 16.6899 0.540039 18.2599 0.540039 20.1899V31.1899C0.540039 33.1199 2.11004 34.6899 4.04004 34.6899H9.54004V36.6899C9.54004 38.6199 11.11 40.1899 13.04 40.1899H28.04C29.97 40.1899 31.54 38.6199 31.54 36.6899V34.6899H37.29C39.22 34.6899 40.79 33.1199 40.79 31.1899V20.1899C40.79 18.2599 39.22 16.6899 37.29 16.6899Z" fill="#1A1919"/>
</svg>

<svg xmlns="http://www.w3.org/2000/svg" viewBox="0 0 41 41"><path fill-rule="evenodd" d="M37.79 31.19c0 .27-.229.5-.5.5H4.04c-.271 0-.5-.23-.5-.5v-11c0-.27.229-.5.5-.5h33.25c.271 0 .5.23.5.5v11zm-9.25 5.5c0 .27-.229.5-.5.5h-15c-.271 0-.5-.23-.5-.5v-2h16v2zm-16-33c0-.27.229-.5.5-.5h15c.271 0 .5.23.5.5v13h-16v-13zm24.75 13h-5.75v-13c0-1.93-1.57-3.5-3.5-3.5h-15c-1.93 0-3.5 1.57-3.5 3.5v13h-5.5c-1.93 0-3.5 1.57-3.5 3.5v11c0 1.93 1.57 3.5 3.5 3.5h5.5v2c0 1.93 1.57 3.5 3.5 3.5h15c1.93 0 3.5-1.57 3.5-3.5v-2h5.75c1.93 0 3.5-1.57 3.5-3.5v-11c0-1.93-1.57-3.5-3.5-3.5z" clip-rule="evenodd"/></svg>
